media/icons/icon-info-help-grey.svg

<svg xmlns="http://www.w3.org/2000/svg" width="30" height="30" viewBox="0 0 30 30"><path fill="#57626C" d="M15 1.875c3.506 0 6.802 1.365 9.28 3.844 2.479 2.479 3.845 5.775 3.845 9.281s-1.365 6.802-3.845 9.281c-2.479 2.479-5.774 3.844-9.28 3.844s-6.802-1.365-9.281-3.844c-2.479-2.479-3.844-5.775-3.844-9.281s1.365-6.802 3.844-9.281 5.775-3.844 9.281-3.844m0-1.875c-8.284 0-15 6.716-15 15s6.716 15 15 15 15-6.716 15-15-6.716-15-15-15zm0 5.625c-1.554 0-2.812 1.259-2.812 2.812s1.258 2.813 2.812 2.813 2.812-1.259 2.812-2.812-1.258-2.813-2.812-2.813zm0 7.5h-1.875c-1.036 0-1.875.839-1.875 1.875s.839 1.875 1.875 1.875v5.625c0 1.035.839 1.875 1.875 1.875 1.035 0 1.875-.84 1.875-1.875v-7.5c0-1.036-.84-1.875-1.875-1.875z"></path></svg>

<svg width="30px" height="30px" viewBox="0 0 30 30" version="1.1" xmlns="http://www.w3.org/2000/svg" xmlns:xlink="http://www.w3.org/1999/xlink">
    <!-- Generator: Sketch 43.2 (39069) - http://www.bohemiancoding.com/sketch -->
    <desc>Created with Sketch.</desc>
    <defs></defs>
    <g id="Page-1" stroke="none" stroke-width="1" fill="none" fill-rule="evenodd">
        <g id="icon-info-help" transform="translate(-23.000000, -23.000000)" fill-rule="nonzero" fill="#57626C">
            <g transform="translate(23.000000, 23.000000)" id="Group">
                <g>
                    <path d="M15,1.875 C18.506,1.875 21.802,3.24 24.28,5.719 C26.759,8.198 28.125,11.494 28.125,15 C28.125,18.506 26.76,21.802 24.28,24.281 C21.801,26.76 18.506,28.125 15,28.125 C11.494,28.125 8.198,26.76 5.719,24.281 C3.24,21.802 1.875,18.506 1.875,15 C1.875,11.494 3.24,8.198 5.719,5.719 C8.198,3.24 11.494,1.875 15,1.875 L15,1.875 Z M15,-2.22044605e-15 C6.716,-2.22044605e-15 1.77635684e-15,6.716 1.77635684e-15,15 C1.77635684e-15,23.284 6.716,30 15,30 C23.284,30 30,23.284 30,15 C30,6.716 23.284,0 15,0 L15,-2.22044605e-15 Z M15,5.625 C13.446,5.625 12.188,6.884 12.188,8.437 C12.188,9.99 13.446,11.25 15,11.25 C16.554,11.25 17.812,9.991 17.812,8.438 C17.812,6.885 16.554,5.625 15,5.625 Z M15,13.125 L13.125,13.125 C12.089,13.125 11.25,13.964 11.25,15 C11.25,16.036 12.089,16.875 13.125,16.875 L13.125,22.5 C13.125,23.535 13.964,24.375 15,24.375 C16.035,24.375 16.875,23.535 16.875,22.5 L16.875,15 C16.875,13.964 16.035,13.125 15,13.125 L15,13.125 Z" id="Shape"></path>
                </g>
            </g>
        </g>
    </g>
</svg>
